img/icon_twitter_blue.svg

<svg width="46" height="48" viewBox="0 0 46 48" fill="none" xmlns="http://www.w3.org/2000/svg">
<rect width="46" height="48" fill="#669EC0"/>
<path d="M25.95 17.1441C27.635 16.6481 28.934 17.4141 29.527 18.3231C30.2 18.0921 30.858 17.8421 31.538 17.6151C31.5249 18.3015 31.2117 18.9476 30.681 19.3831C31.366 19.5531 31.985 18.8921 31.985 18.8921C31.816 19.8921 30.979 20.6801 30.422 20.9161C30.191 27.6661 27.247 32.1331 20.345 31.9981H19.899C19.489 31.9981 15.735 31.5381 15.001 30.1111C17.272 30.3071 18.894 29.6891 19.694 28.9341C18.734 28.6341 17.015 28.4571 16.715 25.9841C17.064 26.0901 17.279 26.2121 17.905 26.1031C16.705 25.2471 15.374 24.5301 15.448 22.3301C15.733 22.6581 16.515 22.8661 16.788 22.8021C16.085 22.5611 14.818 19.4421 15.894 17.8501C17.712 19.7041 19.629 21.4561 23.046 21.6231C23.254 19.3301 24.183 17.7931 25.95 17.1441Z" fill="white"/>
</svg>

<svg width="46" height="48" fill="none" xmlns="http://www.w3.org/2000/svg"><path fill="#669EC0" d="M0 0h46v48H0z"/><path d="M25.95 17.1441c1.685-.496 2.984.27 3.577 1.179.673-.231 1.331-.481 2.011-.708-.0131.6864-.3263 1.3325-.857 1.768.685.17 1.304-.491 1.304-.491-.169 1-1.006 1.788-1.563 2.024-.231 6.75-3.175 11.217-10.077 11.082h-.446c-.41 0-4.164-.46-4.898-1.887 2.271.196 3.893-.422 4.693-1.177-.96-.3-2.679-.477-2.979-2.95.349.106.564.228 1.19.119-1.2-.856-2.531-1.573-2.457-3.773.285.328 1.067.536 1.34.472-.703-.241-1.97-3.36-.894-4.952 1.818 1.854 3.735 3.606 7.152 3.773.208-2.293 1.137-3.83 2.904-4.479z" fill="#fff"/></svg>
